public/images/ico2.svg

<svg width="94" height="36" viewBox="0 0 94 36" fill="none" xmlns="http://www.w3.org/2000/svg">
<g id="img-ico2">
<g id="ico2">
<path d="M8.22199 0C3.9644 0 0.501953 3.4719 0.501953 7.7411V28.2589C0.501953 32.5267 3.9644 36 8.22199 36H28.684C32.9401 36 36.404 32.5281 36.404 28.2589V7.7411C36.404 3.4733 32.9415 0 28.684 0H8.22199ZM2.74574 7.7411C2.74574 4.70935 5.19708 2.24991 8.22199 2.24991H11.2455C11.7461 2.24991 12.1767 2.60005 12.2847 3.08941C12.8119 5.49119 12.1009 8.06172 10.3213 9.84477C8.54173 11.6292 5.9796 12.3422 3.58436 11.8134C3.09634 11.7052 2.74715 11.2735 2.74715 10.7729V7.7411H2.74574ZM21.5305 33.7487H8.22199C5.19848 33.7487 2.74574 31.2906 2.74574 28.2575V14.9113C2.74574 14.4205 3.18048 14.038 3.66429 14.1154C4.15653 14.1941 4.65156 14.2335 5.1466 14.2335C6.17173 14.2335 7.19125 14.069 8.16309 13.7456C8.52911 13.6246 8.87269 13.9776 8.73806 14.339C7.35252 18.0429 8.14346 22.3782 11.1137 25.3565C14.0853 28.3362 18.4074 29.1279 22.1012 27.7386C22.463 27.6022 22.815 27.9509 22.693 28.3194C22.219 29.7607 22.0872 31.3061 22.3242 32.8192C22.3999 33.3071 22.0241 33.7473 21.5305 33.7473V33.7487ZM34.1588 28.2575C34.1588 31.2892 31.7075 33.7487 28.6825 33.7487H25.659C25.1584 33.7487 24.7279 33.3985 24.6199 32.9092C24.0926 30.5074 24.8036 27.9369 26.5832 26.1538C28.3628 24.3694 30.9249 23.6564 33.3202 24.1852C33.8082 24.2934 34.1574 24.7251 34.1574 25.2257V28.2575H34.1588ZM34.1588 21.0859C34.1588 21.5795 33.7199 21.9577 33.2332 21.8818C31.7243 21.6456 30.1831 21.7763 28.7457 22.2516C28.3782 22.3726 28.0318 22.021 28.1665 21.6582C29.552 17.9557 28.7611 13.6204 25.7909 10.6407C22.8192 7.66095 18.4971 6.86926 14.8033 8.25858C14.4415 8.39498 14.0895 8.04625 14.2115 7.67782C14.6855 6.23647 14.8173 4.69107 14.5803 3.178C14.5046 2.69005 14.8804 2.24991 15.3741 2.24991H28.684C31.7075 2.24991 34.1602 4.70794 34.1602 7.7411V21.0873L34.1588 21.0859Z" fill="#26827C"/>
<path d="M43.0495 4.68544H45.7449V15.3163H43.0495V4.68544Z" fill="#26827C"/>
<path d="M48.199 7.66236H50.6069V8.0575C51.0613 7.66236 51.6671 7.35862 52.4847 7.35862C53.378 7.35862 54.1661 7.72282 54.6808 8.4667C55.18 7.87469 55.877 7.35862 57.1349 7.35862C58.6649 7.35862 59.9368 8.45264 59.9368 10.6688V15.3163H57.5135V10.7757C57.5135 10.0923 57.1658 9.62119 56.4842 9.62119C55.7115 9.62119 55.4086 10.2891 55.288 10.4874V15.3163H52.8647V10.7757C52.8647 10.0923 52.5169 9.62119 51.8354 9.62119C51.0781 9.62119 50.7752 10.2891 50.6083 10.5479V15.3163H48.2004V7.66236H48.199Z" fill="#26827C"/>
<path d="M61.83 7.66236H64.2379V8.08703C64.7526 7.61595 65.4187 7.35862 66.3583 7.35862C68.797 7.35862 70.205 9.25698 70.205 11.49C70.205 13.7231 68.797 15.6214 66.3583 15.6214C65.4187 15.6214 64.7526 15.3627 64.2379 14.893V19.0539H61.83V7.66236ZM64.2379 10.5324V12.4462C64.6923 13.0382 65.2532 13.3574 66.0105 13.3574C67.0707 13.3574 67.7228 12.6136 67.7228 11.49C67.7228 10.3665 67.0721 9.62259 66.0105 9.62259C65.2378 9.62259 64.6628 9.95727 64.2379 10.5338V10.5324Z" fill="#26827C"/>
<path d="M71.0688 13.1606C71.0688 11.9906 71.9622 11.0949 73.6282 10.8221L75.7794 10.4579C75.764 9.88133 75.2647 9.43979 74.5523 9.43979C73.9156 9.43979 73.4473 9.74353 73.0981 10.2441L71.3409 8.90825C72.0379 7.93656 73.2032 7.35862 74.6281 7.35862C77.0513 7.35862 78.1718 8.81684 78.1718 10.4874V15.3163H75.7794V14.7397C75.3559 15.2108 74.492 15.5441 73.6899 15.5441C72.1445 15.5441 71.0702 14.6483 71.0702 13.1592L71.0688 13.1606ZM74.2186 13.6767C74.9913 13.6767 75.4751 13.3124 75.778 12.8568V12.0975L74.2789 12.3562C73.6576 12.4631 73.4459 12.6909 73.4459 13.0396C73.4459 13.4348 73.7488 13.6781 74.2186 13.6781V13.6767Z" fill="#26827C"/>
<path d="M85.23 12.6586L87.1077 14.0859C86.3953 15.028 85.2594 15.62 83.8514 15.62C81.1561 15.62 79.6107 13.7217 79.6107 11.4886C79.6107 9.25558 81.1561 7.35721 83.8514 7.35721C85.2594 7.35721 86.3953 7.94922 87.1077 8.89137L85.23 10.3187C84.9579 9.92352 84.4881 9.61978 83.822 9.61978C82.8375 9.61978 82.1111 10.3637 82.1111 11.4872C82.1111 12.6108 82.8375 13.3546 83.8683 13.3546C84.4741 13.3546 84.9593 13.0509 85.2314 12.6558L85.23 12.6586Z" fill="#26827C"/>
<path d="M88.9701 9.81805H87.5467V7.66095H88.9701V5.74712H91.3934V7.66095H93.4829V9.81805H91.3934V12.3394C91.3934 12.9468 91.7117 13.2815 92.347 13.2815C92.9079 13.2815 93.2711 13.2056 93.4983 13.1142V15.1953C93.0888 15.3781 92.6204 15.4681 91.908 15.4681C89.8325 15.4681 88.9701 14.2223 88.9701 12.3394V9.81805Z" fill="#26827C"/>
<path d="M50.1385 27.5319L52.2743 29.1575C51.2898 30.4638 49.715 31.3146 47.7755 31.3146C44.3986 31.3146 42.0959 28.7328 42.0959 25.6954C42.0959 22.658 44.3986 20.0762 47.7755 20.0762C49.7136 20.0762 51.2898 20.927 52.2743 22.2179L50.1385 23.8575C49.6393 23.1291 48.8357 22.6116 47.7755 22.6116C46.0786 22.6116 44.867 23.918 44.867 25.694C44.867 27.47 46.0786 28.7764 47.7755 28.7764C48.8203 28.7764 49.6379 28.2603 50.1385 27.5305V27.5319Z" fill="#26827C"/>
<path d="M64.4511 25.694C64.4511 28.7314 62.1484 31.3132 58.7869 31.3132C55.4254 31.3132 53.1073 28.7314 53.1073 25.694C53.1073 22.6566 55.41 20.0748 58.7869 20.0748C62.1638 20.0748 64.4511 22.6566 64.4511 25.694ZM61.68 25.694C61.68 23.9025 60.4683 22.6116 58.7869 22.6116C57.1055 22.6116 55.8784 23.918 55.8784 25.694C55.8784 27.47 57.09 28.7764 58.7869 28.7764C60.4838 28.7764 61.68 27.47 61.68 25.694Z" fill="#26827C"/>
<path d="M65.7973 31.7463L68.1814 29.4556C68.5179 29.1378 68.8349 28.7707 68.8349 28.325C68.8349 27.8792 68.5277 27.6008 68.1028 27.6008C67.49 27.6008 67.1436 28.0269 66.7972 28.602L65.4524 27.7681C66.0554 26.7768 66.9655 26.1116 68.2711 26.1116C69.5767 26.1116 70.5261 26.9047 70.5261 28.145C70.5261 29.097 69.8937 29.8409 69.3285 30.3668L67.8546 31.7449H70.7042V33.2523H65.7973V31.7449V31.7463Z" fill="#26827C"/>
</g>
</g>
</svg>

<svg xmlns="http://www.w3.org/2000/svg" width="94" height="36" fill="none"><path fill="#26827C" d="M8.222 0C3.964 0 .502 3.472.502 7.741V28.26c0 4.267 3.462 7.74 7.72 7.74h20.462c4.256 0 7.72-3.472 7.72-7.741V7.74c0-4.268-3.463-7.741-7.72-7.741zM2.746 7.741c0-3.032 2.451-5.491 5.476-5.491h3.024c.5 0 .93.35 1.039.84a7.36 7.36 0 0 1-1.964 6.755 7.31 7.31 0 0 1-6.737 1.968 1.07 1.07 0 0 1-.837-1.04V7.74zM21.53 33.75H8.222c-3.024 0-5.476-2.458-5.476-5.492V14.912a.8.8 0 0 1 .918-.796q.74.119 1.483.118a9.6 9.6 0 0 0 3.016-.487.458.458 0 0 1 .575.593c-1.385 3.704-.595 8.04 2.376 11.018A10.35 10.35 0 0 0 22.1 27.739c.362-.137.714.212.592.58a9.64 9.64 0 0 0-.369 4.5.804.804 0 0 1-.794.928zm12.629-5.492c0 3.032-2.451 5.492-5.476 5.492h-3.024c-.5 0-.931-.35-1.04-.84a7.36 7.36 0 0 1 1.964-6.755 7.31 7.31 0 0 1 6.737-1.969c.488.108.837.54.837 1.04v3.032zm0-7.171a.804.804 0 0 1-.926.796 9.6 9.6 0 0 0-4.487.37.46.46 0 0 1-.58-.594c1.386-3.702.595-8.038-2.375-11.017A10.35 10.35 0 0 0 14.803 8.26c-.362.136-.714-.213-.592-.581a9.64 9.64 0 0 0 .37-4.5.804.804 0 0 1 .793-.928h13.31c3.023 0 5.476 2.458 5.476 5.491v13.346zM43.05 4.685h2.695v10.631H43.05zm5.149 2.977h2.408v.395a2.77 2.77 0 0 1 1.878-.698c.893 0 1.681.364 2.196 1.108.499-.592 1.196-1.108 2.454-1.108 1.53 0 2.802 1.094 2.802 3.31v4.647h-2.423v-4.54c0-.684-.348-1.155-1.03-1.155-.773 0-1.075.668-1.196.866v4.83h-2.423v-4.541c0-.684-.348-1.155-1.03-1.155-.757 0-1.06.668-1.227.927v4.768H48.2V7.662zm13.631 0h2.408v.425c.515-.471 1.18-.728 2.12-.728 2.439 0 3.847 1.898 3.847 4.131s-1.408 4.131-3.847 4.131c-.94 0-1.605-.258-2.12-.728v4.16H61.83zm2.408 2.87v1.914c.454.592 1.015.911 1.772.911 1.06 0 1.713-.743 1.713-1.867 0-1.123-.65-1.867-1.713-1.867-.772 0-1.347.334-1.772.91m6.831 2.627c0-1.17.893-2.065 2.56-2.338l2.15-.364c-.015-.577-.514-1.018-1.227-1.018-.636 0-1.105.304-1.454.804l-1.757-1.336c.697-.971 1.862-1.55 3.287-1.55 2.423 0 3.544 1.459 3.544 3.13v4.828h-2.393v-.576c-.423.47-1.287.804-2.09.804-1.544 0-2.619-.896-2.619-2.385zm3.15.517c.772 0 1.256-.365 1.559-.82v-.76l-1.5.26c-.62.106-.832.334-.832.683 0 .395.303.638.773.638zm11.011-1.018 1.878 1.427c-.713.942-1.849 1.534-3.257 1.534-2.695 0-4.24-1.898-4.24-4.131s1.545-4.132 4.24-4.132c1.408 0 2.544.592 3.257 1.534L85.23 10.32c-.272-.395-.742-.7-1.408-.7-.984 0-1.71.745-1.71 1.868s.726 1.868 1.756 1.868a1.64 1.64 0 0 0 1.363-.7zm3.74-2.841h-1.423V7.661h1.423V5.747h2.423v1.914h2.09v2.157h-2.09v2.521c0 .608.319.942.954.942.56 0 .924-.075 1.151-.167v2.081c-.41.183-.878.273-1.59.273-2.076 0-2.938-1.246-2.938-3.129zM50.139 27.532l2.135 1.625c-.984 1.307-2.559 2.158-4.498 2.158-3.377 0-5.68-2.582-5.68-5.62 0-3.037 2.303-5.619 5.68-5.619 1.938 0 3.514.851 4.498 2.142l-2.136 1.64c-.499-.729-1.302-1.246-2.362-1.246-1.697 0-2.909 1.306-2.909 3.082s1.212 3.082 2.909 3.082a2.81 2.81 0 0 0 2.362-1.245m14.313-1.837c0 3.037-2.303 5.62-5.664 5.62-3.362 0-5.68-2.583-5.68-5.62s2.303-5.62 5.68-5.62 5.664 2.583 5.664 5.62m-2.771 0c0-1.791-1.212-3.082-2.893-3.082s-2.909 1.306-2.909 3.082 1.212 3.082 2.909 3.082 2.893-1.306 2.893-3.082m4.117 6.052 2.384-2.29c.337-.318.654-.685.654-1.131s-.307-.724-.732-.724c-.613 0-.96.426-1.306 1.001l-1.345-.834c.603-.991 1.514-1.656 2.82-1.656s2.254.793 2.254 2.033c0 .952-.632 1.696-1.197 2.222l-1.474 1.378h2.85v1.507h-4.908z"/></svg>
